X:1
T:Vals i A efter Alfred Pettersson
C:Alfred Pettersson
O:Nättraby, Blekinge
R:Vals
M:3/4
L:1/8
Z:Andy Davey 2018
K:A
Q:1/2=90
Ac | e2 fe de | eA AA ce | dB BB gb | a2 gf e2 | e2 fe de | eA AA ce | dB BB gb | a4 :|
|:e2 | aa c'a ed | c2 ec A2 | GB e2 d2 | ce fg ae | aa c'a ed | c2 ec A2 | GB e2 g2 | a4 :|
|:A2 | [BE]4 e2 | [cF]4 e2 | fa gf ed | ef ed cB | AA cc e2 | AA dd f2 | EE GG BB | A4 :|

